static/images/email.svg

<svg xmlns="http://www.w3.org/2000/svg" width="24" height="24" viewBox="0 0 24 24"><path d="M12 .02c-6.627 0-12 5.373-12 12s5.373 12 12 12 12-5.373 12-12-5.373-12-12-12zm6.99 6.98l-6.99 5.666-6.991-5.666h13.981zm.01 10h-14v-8.505l7 5.673 7-5.672v8.504z"/></svg>

<svg xmlns="http://www.w3.org/2000/svg" width="24" height="24"><path d="M12 .02a12 12 0 100 24 12 12 0 000-24zM18.99 7L12 12.67 5 7H19zM19 17H5V8.5l7 5.67 7-5.67V17z"/></svg>
